genesis/_inc/system.svg

<svg xmlns="http://www.w3.org/2000/svg"><g fill="#fffdfd"><path d="m332.787 4.932-8.481 25.83h4.188l8.496-24.942c.309-1.14 1.239-1.974 2.334-1.974 1.107 0 2.037.834 2.346 1.974l7.182 21.099h-11.268v3.843h16.77l-8.481-25.83c-.813-2.85-3.438-4.932-6.549-4.932-3.102 0-5.724 2.082-6.537 4.932zm4.965 16.041 1.485-4.407 1.548 4.407zm-.612-12.648-7.596 22.437h4.896l3.141-9.3v4.398h9.864l-5.856-17.535c-.3-.975-1.185-3.783-2.229-3.783-1.047 0-1.935 2.805-2.22 3.783zm-26.811-3.429h14.676v-4.197h-15.027c-4.053 0-7.338 3.294-7.338 7.347v15.381c0 4.053 3.285 7.338 7.338 7.338h15.027v-19.584h-11.88v3.846h7.683v11.535h-10.479c-1.935 0-3.492-1.563-3.492-3.492v-14.685c0-1.923 1.557-3.489 3.492-3.489zm2.796 11.181v4.2h2.442v1.047h-2.442c-.579 0-1.05-.471-1.05-1.047v-9.093c0-.579.471-1.05 1.05-1.05h11.88v-4.191h-13.626c-1.935 0-3.504 1.566-3.504 3.495v12.585c0 1.926 1.569 3.492 3.504 3.492h8.388v-9.438zm-26.907-11.181h14.676v-4.197h-15.03c-4.053 0-7.335 3.294-7.335 7.347v15.21c0 4.05 3.282 7.344 7.335 7.344h15.03v-4.197h-14.676c-1.929 0-3.495-1.563-3.495-3.492v-14.523c0-1.926 1.566-3.492 3.495-3.492zm11.526 10.131v-3.843h-9.783c0-.579.471-1.05 1.05-1.05h11.88v-4.191h-13.626c-1.926 0-3.489 1.566-3.489 3.495v5.589zm0 1.404v3.843h-9.783c0 .579.471 1.05 1.05 1.05h11.88v4.188h-13.626c-1.926 0-3.489-1.563-3.489-3.495v-5.589zm-35.91 5.238h-8.814v3.846h13.452.174c2.523-.093 4.542-2.172 4.542-4.716 0-2.604-2.109-4.722-4.716-4.722h-5.301c-2.142-.816-3.963-2.943-3.963-5.421 0-3.186 2.934-5.766 6.117-5.766h13.11v-4.194h-13.635c-5.4 0-9.78 4.389-9.78 9.789 0 5.409 4.731 9.789 10.131 9.789v-.045l.027.045h3.123c.378 0 .696.309.696.699 0 .387-.318.696-.696.696zm5.781-11.88h8.823v-3.846h-13.455-.18c-2.526.09-4.542 2.172-4.542 4.716 0 2.613 2.115 4.725 4.725 4.725h5.301c2.145.822 3.954 2.94 3.954 5.418 0 3.186-2.931 5.766-6.117 5.766h-13.101v4.197h13.626c5.403 0 9.789-4.38 9.789-9.789 0-5.4-4.731-9.789-10.134-9.789v.054l-.033-.054h-3.114c-.39 0-.699-.306-.699-.696 0-.378.309-.696.699-.696z"/><path d="m274.776 45.312v62.034h-20.889v-22.917l-40.032-22.782v45.699h-20.889v-62.034h21.759l39.162 22.281v-22.281z"/><path d="m479.967 45.012h21.714v62.43h-21.714z"/><path d="m346.413 57.498h-35.673v12.486h42.807l-20.514 12.486h-22.293v12.486h57.969l-20.514 12.486h-58.86v-48.159l21.405-14.271h56.184z"/><path d="m156.747 57.732h-35.472v12.411h42.567l-20.397 12.42h-22.17v12.414h57.645l-20.4 12.417h-58.53v-47.889l21.285-14.193h55.872z"/><path d="m0 59.508 21.291-14.196h64.764l-20.406 12.426h-44.358v37.257h39.924v-15.081h-24.84l20.403-12.42h25.731v25.728l-21.294 14.196h-61.215z"/><path d="m466.698 94.776-20.811 12.666h-64.239l20.811-12.666h40.713v-12.666h-61.524v-24.429l20.811-12.669h65.145l-20.811 12.669h-42.525v11.76h62.43z"/><path d="m443.172 94.776v-12.666h-61.524v-24.429l20.811-12.669h65.145l-20.811 12.669h-42.525v11.76h62.43v25.335l-20.811 12.666h-64.239l20.811-12.666z"/><path d="m599.097 94.776-20.811 12.666h-64.239l20.811-12.666h40.716v-12.666h-61.527v-24.429l20.811-12.669h65.142l-20.808 12.669h-42.525v11.76h62.43z"/><path d="m575.574 94.776v-12.666h-61.527v-24.429l20.811-12.669h65.142l-20.808 12.669h-42.525v11.76h62.43v25.335l-20.811 12.666h-64.239l20.811-12.666z"/></g></svg>

<?xml version="1.0" encoding="utf-8"?>
<svg version="1.1" xmlns="http://www.w3.org/2000/svg">
  <g>
    <path id="path16" d="M 332.787 4.932 L 324.306 30.762 L 328.494 30.762 L 336.99 5.82 C 337.299 4.68 338.229 3.846 339.324 3.846 C 340.431 3.846 341.361 4.68 341.67 5.82 L 348.852 26.919 L 337.584 26.919 L 337.584 30.762 L 354.354 30.762 L 345.873 4.932 C 345.06 2.082 342.435 0 339.324 0 C 336.222 0 333.6 2.082 332.787 4.932 Z M 337.752 20.973 L 339.237 16.566 L 340.785 20.973 L 337.752 20.973 Z M 337.14 8.325 L 329.544 30.762 L 334.44 30.762 L 337.581 21.462 L 337.581 25.86 L 347.445 25.86 L 341.589 8.325 C 341.289 7.35 340.404 4.542 339.36 4.542 C 338.313 4.542 337.425 7.347 337.14 8.325 L 337.14 8.325 Z M 310.329 4.896 L 325.005 4.896 L 325.005 0.699 L 309.978 0.699 C 305.925 0.699 302.64 3.993 302.64 8.046 L 302.64 23.427 C 302.64 27.48 305.925 30.765 309.978 30.765 L 325.005 30.765 L 325.005 11.181 L 313.125 11.181 L 313.125 15.027 L 320.808 15.027 L 320.808 26.562 L 310.329 26.562 C 308.394 26.562 306.837 24.999 306.837 23.07 L 306.837 8.385 C 306.837 6.462 308.394 4.896 310.329 4.896 Z M 313.125 16.077 L 313.125 20.277 L 315.567 20.277 L 315.567 21.324 L 313.125 21.324 C 312.546 21.324 312.075 20.853 312.075 20.277 L 312.075 11.184 C 312.075 10.605 312.546 10.134 313.125 10.134 L 325.005 10.134 L 325.005 5.943 L 311.379 5.943 C 309.444 5.943 307.875 7.509 307.875 9.438 L 307.875 22.023 C 307.875 23.949 309.444 25.515 311.379 25.515 L 319.767 25.515 L 319.767 16.077 L 313.125 16.077 L 313.125 16.077 Z M 286.218 4.896 L 300.894 4.896 L 300.894 0.699 L 285.864 0.699 C 281.811 0.699 278.529 3.993 278.529 8.046 L 278.529 23.256 C 278.529 27.306 281.811 30.6 285.864 30.6 L 300.894 30.6 L 300.894 26.403 L 286.218 26.403 C 284.289 26.403 282.723 24.84 282.723 22.911 L 282.723 8.388 C 282.723 6.462 284.289 4.896 286.218 4.896 L 286.218 4.896 Z M 297.744 15.027 L 297.744 11.184 L 287.961 11.184 C 287.961 10.605 288.432 10.134 289.011 10.134 L 300.891 10.134 L 300.891 5.943 L 287.265 5.943 C 285.339 5.943 283.776 7.509 283.776 9.438 L 283.776 15.027 L 297.744 15.027 L 297.744 15.027 Z M 297.744 16.431 L 297.744 20.274 L 287.961 20.274 C 287.961 20.853 288.432 21.324 289.011 21.324 L 300.891 21.324 L 300.891 25.512 L 287.265 25.512 C 285.339 25.512 283.776 23.949 283.776 22.017 L 283.776 16.428 L 297.744 16.431 L 297.744 16.431 Z M 261.834 21.669 L 253.02 21.669 L 253.02 25.515 L 266.472 25.515 L 266.646 25.515 C 269.169 25.422 271.188 23.343 271.188 20.799 C 271.188 18.195 269.079 16.077 266.472 16.077 L 261.171 16.077 C 259.029 15.261 257.208 13.134 257.208 10.656 C 257.208 7.47 260.142 4.89 263.325 4.89 L 276.435 4.89 L 276.435 0.696 L 262.8 0.696 C 257.4 0.696 253.02 5.085 253.02 10.485 C 253.02 15.894 257.751 20.274 263.151 20.274 L 263.151 20.229 L 263.178 20.274 L 266.301 20.274 C 266.679 20.274 266.997 20.583 266.997 20.973 C 266.997 21.36 266.679 21.669 266.301 21.669 L 261.834 21.669 L 261.834 21.669 Z M 267.615 9.789 L 276.438 9.789 L 276.438 5.943 L 262.983 5.943 L 262.803 5.943 C 260.277 6.033 258.261 8.115 258.261 10.659 C 258.261 13.272 260.376 15.384 262.986 15.384 L 268.287 15.384 C 270.432 16.206 272.241 18.324 272.241 20.802 C 272.241 23.988 269.31 26.568 266.124 26.568 L 253.023 26.568 L 253.023 30.765 L 266.649 30.765 C 272.052 30.765 276.438 26.385 276.438 20.976 C 276.438 15.576 271.707 11.187 266.304 11.187 L 266.304 11.241 L 266.271 11.187 L 263.157 11.187 C 262.767 11.187 262.458 10.881 262.458 10.491 C 262.458 10.113 262.767 9.795 263.157 9.795 L 267.615 9.789 L 267.615 9.789 Z" style="fill-opacity: 1; fill: rgb(255, 253, 253);"/>
    <polygon id="polygon37" points="274.776 45.312 274.776 107.346 253.887 107.346 253.887 84.429 213.855 61.647 213.855 107.346 192.966 107.346 192.966 45.312 214.725 45.312 253.887 67.593 253.887 45.312" style="fill-opacity: 1; fill: rgb(255, 253, 253);"/>
    <rect id="rect58" x="479.967" y="45.012" width="21.714" height="62.43" style="fill-opacity: 1; fill: rgb(255, 253, 253);"/>
    <polygon id="polygon79" points="346.413 57.498 310.74 57.498 310.74 69.984 353.547 69.984 333.033 82.47 310.74 82.47 310.74 94.956 368.709 94.956 348.195 107.442 289.335 107.442 289.335 59.283 310.74 45.012 366.924 45.012" style="fill-opacity: 1; fill: rgb(255, 253, 253);"/>
    <polygon id="polygon100" points="156.747 57.732 121.275 57.732 121.275 70.143 163.842 70.143 143.445 82.563 121.275 82.563 121.275 94.977 178.92 94.977 158.52 107.394 99.99 107.394 99.99 59.505 121.275 45.312 177.147 45.312" style="fill-opacity: 1; fill: rgb(255, 253, 253);"/>
    <polygon id="polygon121" points="0 59.508 21.291 45.312 86.055 45.312 65.649 57.738 21.291 57.738 21.291 94.995 61.215 94.995 61.215 79.914 36.375 79.914 56.778 67.494 82.509 67.494 82.509 93.222 61.215 107.418 0 107.418" style="fill-opacity: 1; fill: rgb(255, 253, 253);"/>
    <polygon points="466.698 94.776 445.887 107.442 381.648 107.442 402.459 94.776 443.172 94.776 443.172 82.11 381.648 82.11 381.648 57.681 402.459 45.012 467.604 45.012 446.793 57.681 404.268 57.681 404.268 69.441 466.698 69.441" id="polygon170" style="fill-opacity: 1; fill: rgb(255, 253, 253);"/>
    <polygon id="polygon142" points="443.172 94.776 443.172 82.11 381.648 82.11 381.648 57.681 402.459 45.012 467.604 45.012 446.793 57.681 404.268 57.681 404.268 69.441 466.698 69.441 466.698 94.776 445.887 107.442 381.648 107.442 402.459 94.776" style="fill-opacity: 1; fill: rgb(255, 253, 253);"/>
    <polygon points="599.097 94.776 578.286 107.442 514.047 107.442 534.858 94.776 575.574 94.776 575.574 82.11 514.047 82.11 514.047 57.681 534.858 45.012 600 45.012 579.192 57.681 536.667 57.681 536.667 69.441 599.097 69.441" id="polygon202" style="fill-opacity: 1; fill: rgb(255, 253, 253);"/>
    <polygon id="polygon163" points="575.574 94.776 575.574 82.11 514.047 82.11 514.047 57.681 534.858 45.012 600 45.012 579.192 57.681 536.667 57.681 536.667 69.441 599.097 69.441 599.097 94.776 578.286 107.442 514.047 107.442 534.858 94.776" style="fill-opacity: 1; fill: rgb(255, 253, 253);"/>
  </g>
</svg>
